src/bold.svg

<?xml version="1.0" encoding="UTF-8"?>
<svg xmlns="http://www.w3.org/2000/svg" xmlns:xlink="http://www.w3.org/1999/xlink" width="24pt" height="24pt" viewBox="0 0 24 24" version="1.1">
<g id="surface1">
<path style=" stroke:none;fill-rule:nonzero;fill:rgb(0.784314%,1.568627%,0%);fill-opacity:1;" d="M 12.65625 23.78125 C 14.945312 23.78125 17.019531 23.238281 18.21875 22.035156 C 19.746094 20.726562 20.289062 19.199219 20.289062 16.910156 C 20.289062 15.382812 19.746094 14.074219 18.980469 13.089844 C 18.21875 12.109375 16.910156 11.34375 15.710938 11.019531 C 16.691406 10.472656 17.78125 10.035156 18.21875 9.273438 C 18.980469 8.507812 19.199219 7.527344 19.199219 6.4375 C 19.199219 4.363281 18.4375 2.617188 17.128906 1.636719 C 15.816406 0.65625 13.964844 0 11.34375 0 L 3.710938 0 L 3.710938 24 L 12.65625 24 Z M 13.199219 12.546875 C 14.726562 12.546875 15.710938 13.089844 16.253906 13.855469 C 17.019531 14.617188 17.238281 15.601562 17.238281 17.128906 C 17.238281 18.4375 16.691406 19.417969 15.925781 20.183594 C 15.164062 20.945312 13.855469 21.164062 12.65625 21.164062 L 6.980469 21.164062 L 6.980469 12.4375 C 6.980469 12.546875 13.199219 12.546875 13.199219 12.546875 Z M 6.980469 2.289062 L 11.5625 2.289062 C 13.089844 2.289062 14.398438 2.507812 15.164062 3.273438 C 15.925781 4.035156 16.472656 4.800781 16.472656 6.109375 C 16.472656 7.417969 16.253906 8.183594 15.492188 8.945312 C 14.726562 9.710938 13.746094 9.925781 12.65625 9.925781 L 6.980469 9.925781 Z M 6.980469 2.289062 "/>
</g>
</svg>

<?xml version="1.0" encoding="utf-8"?>
<!-- Generator: Adobe Illustrator 21.1.0, SVG Export Plug-In . SVG Version: 6.00 Build 0)  -->
<svg version="1.1" id="Layer_1" xmlns="http://www.w3.org/2000/svg" xmlns:xlink="http://www.w3.org/1999/xlink" x="0px" y="0px"
	 viewBox="0 0 24 24" style="enable-background:new 0 0 24 24;" xml:space="preserve">
<style type="text/css">
	.st0{fill:#020400;}
</style>
<g id="surface1">
	<path class="st0" d="M12.7,23.8c2.3,0,4.4-0.5,5.6-1.7c1.5-1.3,2.1-2.8,2.1-5.1c0-1.5-0.5-2.8-1.3-3.8c-0.8-1-2.1-1.7-3.3-2.1
		c1-0.5,2.1-1,2.5-1.7c0.8-0.8,1-1.7,1-2.8c0-2.1-0.8-3.8-2.1-4.8C15.8,0.7,14,0,11.3,0H3.7v24h8.9V23.8z M13.2,12.5
		c1.5,0,2.5,0.5,3.1,1.3c0.8,0.8,1,1.7,1,3.3c0,1.3-0.5,2.3-1.3,3.1c-0.8,0.8-2.1,1-3.3,1H7v-8.7C7,12.5,13.2,12.5,13.2,12.5z
		 M7,2.3h4.6c1.5,0,2.8,0.2,3.6,1c0.8,0.8,1.3,1.5,1.3,2.8s-0.2,2.1-1,2.8c-0.8,0.8-1.7,1-2.8,1H7V2.3z"/>
</g>
</svg>
